X:430
T: Soldatenleben (149), S. 329
N: T0318
O: Luxemburg
S: Singendes Volk, Esch-Alzette 1937, posth.]
N: Heffingen, hhh Nikolaus Ewen, 2.6.1935
R: historische, Kriegs- und Soldatenlieder]
M: 6/8
L: 1/16
K: F
C2 | F4F2A4FA | c4c2A4
ccc | c4c2c2B2c2 | A6
c6 | A2c2c2d2c2c2 | d6d2c2
B2 | B4B2A2G2F2 | c4d2c4
F2 | A2A2A2A2G2A2 | c6
d6 | c2d2c2c2B2B2 | A6z4

